X: 5
T: The Killavil
R: jig
M: 6/8
L: 1/8
K: Edor
|:A|B2E GFE|BAB edB|AFF DFF|AFA dBA|B2E GFE|BAB edB|~A3 dAF|FED E2:||:A|Bef gbg|faf edB|AFF DFF|AFA dBA|Bef ~g3|~f3 edB|~A3 dAF|FED E2:|


Tune 667	Setting 13706

